!!!OTL: Bayueguihua biandikai
!!!ARE: Asia, China,ÿHenan Xinxiam
!! IV, 130
!!!SCT: C1947
!!!YEM: Copyright 1995, estate of Helmut Schaffrath.
**kern
*ICvox
*Ivox
*M2/4
*k[b-e-a-]
*E-:
{8ee-
8cc
4b-
=1
16cc
16ee-
16b-
16cc
4ee-
=2
8.cc
16b-
8cc
8ee-
=3
2b-}
=4
{8.b-
16cc
8ee-
8ff
=5
8cc
8b-
4g
=6
8b-
8f
8g
8b-
=7
2e-}
=8
{8b-
16cc
16ee-
8b-
8g
=9
8f
8e-
4f
=10
8b-
16cc
16ee-
8b-
8g
=11
8f
8e-
4f}
=12
{8.b-
16cc
4ee-
=13
8cc
8b-
4g
=14
8b-
8f
8g
8b-
=15
2e-}
=16
{8b-
16cc
8ee-
16b-
8g
=17
8f
8e-
4f
=18
8b-
16cc
16ee-
8b-
8g
=19
8f
8e-
4f}
=20
{8.b-
16cc
4ee-
=21
8cc
8b-
4g
=22
8b-
8f
8g
8b-
=23
2e-}
==
!!!AGN: Xiaodiao, Baduan jin
!!!AMT: simple duple
!!!AIN: vox
!!!EED: Helmut Schaffrath
!!!EEV: 1.0
*-
